face-recognition.svg

<svg fill="currentColor" viewBox="0 0 24 24"><path d="M9 11.75A1.25 1.25 0 0 0 7.75 13 1.25 1.25 0 0 0 9 14.25 1.25 1.25 0 0 0 10.25 13 1.25 1.25 0 0 0 9 11.75m6 0A1.25 1.25 0 0 0 13.75 13 1.25 1.25 0 0 0 15 14.25 1.25 1.25 0 0 0 16.25 13 1.25 1.25 0 0 0 15 11.75M12 2A10 10 0 0 0 2 12a10 10 0 0 0 10 10 10 10 0 0 0 10-10A10 10 0 0 0 12 2m0 18a8 8 0 0 1-8-8 4 4 0 0 1 0-.86 10.05 10.05 0 0 0 5.26-5.37A9.99 9.99 0 0 0 17.42 10c.76 0 1.51-.09 2.25-.26 1.25 4.26-1.17 8.69-5.41 9.93-.76.22-1.5.33-2.26.33M0 2a2 2 0 0 1 2-2h4v2H2v4H0zm24 20a2 2 0 0 1-2 2h-4v-2h4v-4h2zM2 24a2 2 0 0 1-2-2v-4h2v4h4v2zM22 0a2 2 0 0 1 2 2v4h-2V2h-4V0z"/></svg>

<svg  viewBox="0 0 24 24" fill="currentColor"><path  d="M9,11.75A1.25,1.25 0 0,0 7.75,13A1.25,1.25 0 0,0 9,14.25A1.25,1.25 0 0,0 10.25,13A1.25,1.25 0 0,0 9,11.75M15,11.75A1.25,1.25 0 0,0 13.75,13A1.25,1.25 0 0,0 15,14.25A1.25,1.25 0 0,0 16.25,13A1.25,1.25 0 0,0 15,11.75M12,2A10,10 0 0,0 2,12A10,10 0 0,0 12,22A10,10 0 0,0 22,12A10,10 0 0,0 12,2M12,20A8,8 0 0,1 4,12C3.97,11.71 3.97,11.43 4,11.14C6.38,10.1 8.27,8.17 9.26,5.77C11.13,8.42 14.17,10 17.42,10C18.18,10 18.93,9.91 19.67,9.74C20.92,14 18.5,18.43 14.26,19.67C13.5,19.89 12.76,20 12,20M0,2A2,2 0 0,1 2,0H6V2H2V6H0V2M24,22A2,2 0 0,1 22,24H18V22H22V18H24V22M2,24A2,2 0 0,1 0,22V18H2V22H6V24H2M22,0A2,2 0 0,1 24,2V6H22V2H18V0H22Z"/></svg>
